app/assets/images/sephora_style_guide/svgs/giftcard.svg

<svg width="24" height="24" xmlns="http://www.w3.org/2000/svg" xmlns:xlink="http://www.w3.org/1999/xlink"><defs><path d="M19 4c1.6568542 0 3 1.34314575 3 3v10c0 1.6568542-1.3431458 3-3 3H5c-1.65685425 0-3-1.3431458-3-3V7c0-1.65685425 1.34314575-3 3-3h14zm-8.585 8l1.9385534 1.9393398c.1735663.1735664.1928515.4429908.0578554.6378589l-.0578554.0692479c-.1735664.1735664-.4429908.1928515-.6378589.0578555l-.0692479-.0578555L9 12h-.001l-2.64544661 2.6464466c-.19526215.1952622-.51184463.1952622-.70710678 0-.19526215-.1952621-.19526215-.5118446 0-.7071068L7.584 12H3v5c0 1.0543618.81587779 1.9181651 1.85073766 1.9945143L5 19h14c1.0543618 0 1.9181651-.8158778 1.9945143-1.8507377L21 17v-5H10.415zm8.085 4c.2761424 0 .5.2238576.5.5s-.2238576.5-.5.5h-3c-.2761424 0-.5-.2238576-.5-.5s.2238576-.5.5-.5h3zM19 5H5c-1.0543618 0-1.91816512.81587779-1.99451426 1.85073766L3 7v4l2.00054687.0009713C4.6862608 10.5829748 4.5 10.0632392 4.5 9.5 4.5 8.11928813 5.61928813 7 7 7c.81838558 0 1.54492631.39323459 2.00098025 1.00106187C9.45507369 7.39323459 10.1816144 7 11 7c1.3807119 0 2.5 1.11928813 2.5 2.5 0 .5632392-.1862608 1.0829748-.5005469 1.5009713L21 11V7c0-1.1045695-.8954305-2-2-2zM7 8c-.82842712 0-1.5.67157288-1.5 1.5 0 .7796961.59488808 1.4204487 1.35553999 1.4931334L7 11h1.5V9.5l-.00686658-.14446001C8.42044868 8.59488808 7.77969612 8 7 8zm4 0c-.7796961 0-1.42044868.59488808-1.49313342 1.35553999L9.5 9.5V11H11c.8284271 0 1.5-.6715729 1.5-1.5 0-.82842712-.6715729-1.5-1.5-1.5z" id="a"/></defs><use fill="#191919" xlink:href="#a" fill-rule="evenodd"/></svg>

<?xml version="1.0" encoding="UTF-8"?>
<svg width="24px" height="24px" viewBox="0 0 24 24" version="1.1" xmlns="http://www.w3.org/2000/svg" xmlns:xlink="http://www.w3.org/1999/xlink">
    <title>icon/line/black/sephoragiftcard</title>
    <defs>
        <path d="M19,4 C20.6568542,4 22,5.34314575 22,7 L22,17 C22,18.6568542 20.6568542,20 19,20 L5,20 C3.34314575,20 2,18.6568542 2,17 L2,7 C2,5.34314575 3.34314575,4 5,4 L19,4 Z M10.415,12 L12.3535534,13.9393398 C12.5271197,14.1129062 12.5464049,14.3823306 12.4114088,14.5771987 L12.3535534,14.6464466 C12.179987,14.820013 11.9105626,14.8392981 11.7156945,14.7043021 L11.6464466,14.6464466 L9,12 L8.999,12 L6.35355339,14.6464466 C6.15829124,14.8417088 5.84170876,14.8417088 5.64644661,14.6464466 C5.45118446,14.4511845 5.45118446,14.134602 5.64644661,13.9393398 L7.584,12 L3,12 L3,17 C3,18.0543618 3.81587779,18.9181651 4.85073766,18.9945143 L5,19 L19,19 C20.0543618,19 20.9181651,18.1841222 20.9945143,17.1492623 L21,17 L21,12 L10.415,12 Z M18.5,16 C18.7761424,16 19,16.2238576 19,16.5 C19,16.7761424 18.7761424,17 18.5,17 L15.5,17 C15.2238576,17 15,16.7761424 15,16.5 C15,16.2238576 15.2238576,16 15.5,16 L18.5,16 Z M19,5 L5,5 C3.9456382,5 3.08183488,5.81587779 3.00548574,6.85073766 L3,7 L3,11 L5.00054687,11.0009713 C4.6862608,10.5829748 4.5,10.0632392 4.5,9.5 C4.5,8.11928813 5.61928813,7 7,7 C7.81838558,7 8.54492631,7.39323459 9.00098025,8.00106187 C9.45507369,7.39323459 10.1816144,7 11,7 C12.3807119,7 13.5,8.11928813 13.5,9.5 C13.5,10.0632392 13.3137392,10.5829748 12.9994531,11.0009713 L21,11 L21,7 C21,5.8954305 20.1045695,5 19,5 Z M7,8 C6.17157288,8 5.5,8.67157288 5.5,9.5 C5.5,10.2796961 6.09488808,10.9204487 6.85553999,10.9931334 L7,11 L8.5,11 L8.5,9.5 L8.49313342,9.35553999 C8.42044868,8.59488808 7.77969612,8 7,8 Z M11,8 C10.2203039,8 9.57955132,8.59488808 9.50686658,9.35553999 L9.5,9.5 L9.5,11 L11,11 C11.8284271,11 12.5,10.3284271 12.5,9.5 C12.5,8.67157288 11.8284271,8 11,8 Z" id="path-1"></path>
    </defs>
    <g id="icon/line/black/sephoragiftcard" stroke="none" stroke-width="1" fill="none" fill-rule="evenodd">
        <mask id="mask-2" fill="white">
            <use xlink:href="#path-1"></use>
        </mask>
        <use id="Mask" fill="#191919" transform="translate(12.000000, 12.000000) rotate(360.000000) translate(-12.000000, -12.000000) " xlink:href="#path-1"></use>
    </g>
</svg>
